icon-themes/breeze_svg/cmd/32/freeline_unfilled.svg

<svg viewBox="0 0 32 32" xmlns="http://www.w3.org/2000/svg"><path d="m17.435547 3.953125-13.435547 13.435547v5.658203h5.65625l13.435547-13.4355469zm-.707031 2.1230469 4.242187 4.2421871-7.070312 7.070313-4.244141-4.242188zm-7.7792972 7.7773441 4.2421872 4.242187-1.414062 1.414063-4.2421878-4.242188.7070313-.707031zm-2.1210938 2.121093 4.242187 4.242188-1.414062 1.414062-4.2421875-4.242187zm17.419922 4.525391c-.39248.001-1.43173.069-3.09375.84375-.51959.2424-.953485.51675-1.546875.84375-.31677.1746-1.45235.74145-1.875.9375-1.23851.5748-1.65007.71986-2.71875 1.125-1.03426.39225-2.147777.74806-2.904297 1.03125-3.18434 1.19219-8.109375 1.21875-8.109375 1.21875v1.5s4.99112.04799 8.625-1.3125c.48203-.18045 1.322225-.4764 2.109375-.75 1.21053-.44153 2.516842-.985115 3.607422-1.453125.45696-.2121 1.5193-.736575 1.96875-.984375.66032-.3639 1.100725-.632625 1.453125-.796875.77006-.4536 1.625105-.723525 2.484375-.703125-.0672.0003.26069.014695.5625.140625.30182.12599.637175.3504.890625.5625.49098.49785.696925.877735.796875 1.546875-.0385 1.02299-.39095 1.343635-1.125 1.921875-.48575.32181-1.168694.380394-1.871094.333984v1.453125c1.17557.002 2.115599-.231524 2.667969-.521484 1.25507-.71579 1.871955-2.004685 1.828125-3.234375-.007-.43185-.115825-.787575-.328125-1.265625-.21237-.47789-.516045-1.01416-.984375-1.40625-.72278-.6348-1.08547-.9141-2.4375-1.03125z" fill="#4d4d4d"/></svg>

<svg xmlns="http://www.w3.org/2000/svg" viewBox="0 0 32 32">
 <path 
     style="fill:#4d4d4d" 
     d="M 17.435547 3.953125 L 4 17.388672 L 4 23.046875 L 9.65625 23.046875 L 23.091797 9.6113281 L 17.435547 3.953125 z M 16.728516 6.0761719 L 20.970703 10.318359 L 13.900391 17.388672 L 9.65625 13.146484 L 16.728516 6.0761719 z M 8.9492188 13.853516 L 13.191406 18.095703 L 11.777344 19.509766 L 7.5351562 15.267578 L 8.2421875 14.560547 L 8.9492188 13.853516 z M 6.828125 15.974609 L 11.070312 20.216797 L 9.65625 21.630859 L 5.4140625 17.388672 L 6.828125 15.974609 z M 24.248047 20.5 C 23.855567 20.501 22.816317 20.569 21.154297 21.34375 C 20.634707 21.58615 20.200812 21.8605 19.607422 22.1875 C 19.290652 22.3621 18.155072 22.92895 17.732422 23.125 C 16.493912 23.6998 16.082352 23.84486 15.013672 24.25 C 13.979412 24.64225 12.865895 24.99806 12.109375 25.28125 C 8.925035 26.47344 4 26.5 4 26.5 L 4 28 C 4 28 8.99112 28.04799 12.625 26.6875 C 13.10703 26.50705 13.947225 26.2111 14.734375 25.9375 C 15.944905 25.49597 17.251217 24.952385 18.341797 24.484375 C 18.798757 24.272275 19.861097 23.7478 20.310547 23.5 C 20.970867 23.1361 21.411272 22.867375 21.763672 22.703125 C 22.533732 22.249525 23.388777 21.9796 24.248047 22 C 24.180847 22.0003 24.508737 22.014695 24.810547 22.140625 C 25.112367 22.266615 25.447722 22.491025 25.701172 22.703125 C 26.192152 23.200975 26.398097 23.58086 26.498047 24.25 C 26.459547 25.27299 26.107097 25.593635 25.373047 26.171875 C 24.887297 26.493685 24.204353 26.552269 23.501953 26.505859 L 23.501953 27.958984 C 24.677523 27.960984 25.617552 27.72746 26.169922 27.4375 C 27.424992 26.72171 28.041877 25.432815 27.998047 24.203125 C 27.991047 23.771275 27.882222 23.41555 27.669922 22.9375 C 27.457552 22.45961 27.153877 21.92334 26.685547 21.53125 C 25.962767 20.89645 25.600077 20.61715 24.248047 20.5 z "
     />
</svg>
